X: 74
T:Galtee Rangers, The
M:C|
L:1/8
R:Reel
K:D
dB[|AFFEF2DE|F2FE FAdB|AFFE F2DE|FABA FE~E2|!
AFFE F2DE|F2FE FAdB|AFFE F2DE|FDEG FDD2|]!
FAAB AGFG|ABde fee2|fedc BcdB|ABde fd~d2|!
A3B AGFG|ABde fee2|fedc BcdB|ABde fedB|]!
